!!!OTL: "Liebeslied" WENN I WISPERL
!!!ARE: Europa, Mitteleuropa, Deutschland, Bayern; Tirol
!!!SCT: Z1204
!!!YEM: Copyright 1995, estate of Helmut Schaffrath.
**kern
*ICvox
*Ivox
*M3/4
*k[b-]
*F:
{8f
=1
8.f
16ff
4ff
8r
8dd
=2
8.cc
16a
4cc
8r}
{8a
=3
8.b-
16g
4.cc
8e
=4
4f
4.r}
{8f
=5
8.f
16ff
4ff
8r
8dd
=6
8.cc
16aa
4ff
8r}
{8a
=7
8.b-
16g
4.cc
8e
=8
4f
4.r}
{8cc
=9
8.b-
16a
4g
8r
8dd
=10
8.cc
16b-
4a
8r}
{8cc
=11
8.b-
16a
8g
8a
8b-
8dd
=12
4cc
4.r}
{8f
=13
8.f
16ff
4ff
8r
8dd
=14
8.cc
16aa
4ff
8r}
{8a
=15
8.b-
16g
4.cc
8e
=16
4f
4.r}
==
!!!AGN: Liebes - Lied
!!!ONB: ESAC (Essen Associative Code) Database: ZUCCAL
!!!AMT: simple triple
!!!AIN: vox
!!!EED: Helmut Schaffrath
!!!EEV: 1.0
*-
